64x64/places/folder-custom-templates.svg

<svg xmlns="http://www.w3.org/2000/svg" width="64" height="64" version="1"><rect style="opacity:.2" width="56" height="36" x="4" y="22" rx="2.8" ry="2.8"/><path style="fill:#3c3f4c" d="M4 46.2C4 47.751 5.249 49 6.8 49h50.4c1.551 0 2.8-1.249 2.8-2.8V15.8c0-1.551-1.249-2.8-2.8-2.8H32c-4.2 0-5.6-6-9.8-6H6.8A2.794 2.794 0 0 0 4 9.8"/><rect style="opacity:.2" width="56" height="36" x="4" y="20" rx="2.8" ry="2.8"/><rect style="fill:#f4f4f7" width="48" height="22" x="8" y="16" rx="2.8" ry="2.8"/><rect style="fill:#555e70" width="56" height="36" x="4" y="21" rx="2.8" ry="2.8"/><path style="opacity:.1;fill:#f4f4f7" d="M6.8 7C5.25 7 4 8.25 4 9.8v1.001A2.795 2.795 0 0 1 6.8 8H22.2c4.2 0 5.601 6 9.801 6h25.199A2.796 2.796 0 0 1 60 16.801v-1A2.796 2.796 0 0 0 57.199 13H32c-4.2 0-5.601-6-9.801-6z"/><path style="fill:#f4f4f7" d="M25.5 29c-.831 0-1.5.669-1.5 1.5V42h1v-1h1V31h8v4h4v13h1v-1h1V34l-5-5h-9.5zM39 48v1h1v-1h-1zm-1 0h-1v1h1v-1zm-1 0v-1h-1v1h1zm-1 0h-1v1h1v-1zm-1 0v-1h-1v1h1zm-1 0h-1v1h1v-1zm-1 0v-1h-1v1h1zm-1 0h-1v1h1v-1zm-1 0v-1h-1v1h1zm-1 0h-1v1h1v-1zm-1 0v-1h-1v1h1zm-1 0h-1v1h1v-1zm-1 0v-1h-1v1h1zm-1 0h-1v1h1v-1zm-1 0v-1h-1v1h1zm0-1h1v-1h-1v1zm0-1v-1h-1v1h1zm0-1h1v-1h-1v1zm0-1v-1h-1v1h1zm0-1h1v-1h-1v1z"/></svg>

<svg xmlns="http://www.w3.org/2000/svg" width="64" height="64" version="1">
 <rect style="opacity:0.2" width="56" height="36" x="4" y="22" rx="2.8" ry="2.8"/>
 <path style="fill:#3c3f4c" d="M 4,46.2 C 4,47.751 5.2488,49 6.8,49 H 57.2 C 58.751,49 60,47.751 60,46.2 V 15.8 C 60,14.249 58.751,13 57.2,13 H 32 C 27.8,13 26.4,7 22.2,7 H 6.8 C 5.2488,7 4,8.2488 4,9.8"/>
 <rect style="opacity:0.2" width="56" height="36" x="4" y="20" rx="2.8" ry="2.8"/>
 <rect style="fill:#f4f4f7" width="48" height="22" x="8" y="16" rx="2.8" ry="2.8"/>
 <rect style="fill:#555e70" width="56" height="36" x="4" y="21" rx="2.8" ry="2.8"/>
 <path style="opacity:0.1;fill:#f4f4f7" d="M 6.8008,7 C 5.2496,7 4,8.2496 4,9.8008 V 10.801 C 4,9.2496 5.2496,8 6.8008,8 H 22.199 C 26.399,8 27.8,14 32,14 H 57.199 C 58.75,14 60,15.25 60,16.801 V 15.801 C 60,14.25 58.75,13 57.199,13 H 32 C 27.8,13 26.399,7 22.199,7 Z"/>
 <path style="fill:#f4f4f7" d="M 25.5 29 C 24.669 29 24 29.669 24 30.5 L 24 42 L 25 42 L 25 41 L 26 41 L 26 31 L 34 31 L 34 35 L 38 35 L 38 47 L 38 48 L 39 48 L 39 47 L 40 47 L 40 34 L 35 29 L 25.5 29 z M 39 48 L 39 49 L 40 49 L 40 48 L 39 48 z M 38 48 L 37 48 L 37 49 L 38 49 L 38 48 z M 37 48 L 37 47 L 36 47 L 36 48 L 37 48 z M 36 48 L 35 48 L 35 49 L 36 49 L 36 48 z M 35 48 L 35 47 L 34 47 L 34 48 L 35 48 z M 34 48 L 33 48 L 33 49 L 34 49 L 34 48 z M 33 48 L 33 47 L 32 47 L 32 48 L 33 48 z M 32 48 L 31 48 L 31 49 L 32 49 L 32 48 z M 31 48 L 31 47 L 30 47 L 30 48 L 31 48 z M 30 48 L 29 48 L 29 49 L 30 49 L 30 48 z M 29 48 L 29 47 L 28 47 L 28 48 L 29 48 z M 28 48 L 27 48 L 27 49 L 28 49 L 28 48 z M 27 48 L 27 47 L 26 47 L 26 48 L 27 48 z M 26 48 L 25 48 L 25 49 L 26 49 L 26 48 z M 25 48 L 25 47 L 24 47 L 24 48 L 25 48 z M 25 47 L 26 47 L 26 46 L 25 46 L 25 47 z M 25 46 L 25 45 L 24 45 L 24 46 L 25 46 z M 25 45 L 26 45 L 26 44 L 25 44 L 25 45 z M 25 44 L 25 43 L 24 43 L 24 44 L 25 44 z M 25 43 L 26 43 L 26 42 L 25 42 L 25 43 z"/>
</svg>
